src/icons/svg/dropbox.svg

<?xml version="1.0"?><svg xmlns="http://www.w3.org/2000/svg" width="40" height="40" viewBox="0 0 40 40"><path  d="m9 15.8l11 6.8-7.6 6.3-11-7.1z m22 12.4v2.4l-11 6.5v0l0 0 0 0v0l-10.9-6.5v-2.4l3.3 2.1 7.6-6.3v-0.1l0 0 0 0v0.1l7.7 6.3z m-18.6-25.6l7.6 6.4-11 6.8-7.6-6z m18.6 13.2l7.6 6-10.9 7.2-7.7-6.4z m-3.3-13.2l10.9 7.2-7.6 6-11-6.8z"></path></svg>

<svg xmlns="http://www.w3.org/2000/svg" width="40" height="40" viewBox="0 0 40 40"><path d="M9 15.8l11 6.8-7.6 6.3-11-7.1zm22 12.4v2.4l-11 6.5-10.9-6.5v-2.4l3.3 2.1L20 24v-.1.1l7.7 6.3zM12.4 2.6L20 9 9 15.8l-7.6-6zM31 15.8l7.6 6L27.7 29 20 22.6zM27.7 2.6l10.9 7.2-7.6 6L20 9z"/></svg>
